assets/features/payment-flow/Malaysia-MYS-马来西亚.svg

<svg width="40" height="20" viewBox="0 0 40 20" fill="none" xmlns="http://www.w3.org/2000/svg">
<g clip-path="url(#clip0_1790_17672)">
<path d="M0 0H40V20H0V0Z" fill="white"/>
<path d="M39.9999 8.58538V9.98577H1.42857V8.58538H39.9999ZM39.9999 5.72894V7.12835H1.42857V5.72894H39.9999ZM39.9999 2.87151V4.2719H1.42857V2.87151H39.9999ZM39.9999 0.0140915V1.41448H1.42857V0.0140915H39.9999Z" fill="#CC0000"/>
<path d="M0 0H20V12.1429H0V0Z" fill="#000066"/>
<path d="M40 17.1575V18.5569H0V17.1575H40ZM40 14.3001V15.7005H0V14.3001H40ZM40 11.4427V12.8431H0V11.4427H40Z" fill="#CC0000"/>
<path d="M12.5 2.14286L12.8185 4.32143L14.0506 2.49702L13.3899 4.59821L15.2917 3.4881L13.7857 5.09524L15.9821 4.91964L13.9286 5.71429L15.9821 6.50893L13.7857 6.33333L15.2917 7.94048L13.3899 6.83036L14.0506 8.93155L12.8185 7.10714L12.5 9.28571L12.1815 7.10714L10.9494 8.93155L11.6101 6.83036L9.70833 7.94048L11.2143 6.33333L9.01786 6.50893L11.0714 5.71429L9.01786 4.91964L11.2143 5.09524L9.70833 3.4881L11.6101 4.59821L10.9494 2.49702L12.1815 4.32143L12.5 2.14286ZM10.7143 2.23214C10.1343 1.9748 9.49923 1.86641 8.86673 1.91679C8.23422 1.96718 7.62432 2.17475 7.0924 2.52067C6.56047 2.86659 6.12338 3.33989 5.82079 3.8976C5.51821 4.45532 5.35972 5.07978 5.35972 5.71429C5.35972 6.34879 5.51821 6.97325 5.82079 7.53097C6.12338 8.08868 6.56047 8.56198 7.0924 8.9079C7.62432 9.25382 8.23422 9.46139 8.86673 9.51178C9.49923 9.56217 10.1343 9.45377 10.7143 9.19643C10.0739 9.65593 9.31912 9.92991 8.53307 9.98825C7.74701 10.0466 6.96009 9.88701 6.25886 9.52708C5.55762 9.16715 4.96922 8.6208 4.55838 7.94813C4.14754 7.27545 3.93017 6.5025 3.93017 5.71429C3.93017 4.92607 4.14754 4.15312 4.55838 3.48044C4.96922 2.80777 5.55762 2.26142 6.25886 1.90149C6.96009 1.54156 7.74701 1.38199 8.53307 1.44032C9.31912 1.49866 10.0739 1.77264 10.7143 2.23214Z" fill="#FFCC00"/>
</g>
<defs>
<clipPath id="clip0_1790_17672">
<rect width="40" height="20" fill="white"/>
</clipPath>
</defs>
</svg>

<svg xmlns="http://www.w3.org/2000/svg" width="40" height="20" fill="none" viewBox="0 0 40 20"><g clip-path="url(#a)"><path fill="#fff" d="M0 0h40v20H0z"/><path fill="#c00" d="M40 8.585v1.4H1.429v-1.4zm0-2.856v1.4H1.429v-1.4zm0-2.857v1.4H1.429v-1.4zm0-2.858v1.4H1.429v-1.4z"/><path fill="#006" d="M0 0h20v12.143H0z"/><path fill="#c00" d="M40 17.158v1.399H0v-1.4zm0-2.858v1.4H0v-1.4zm0-2.857v1.4H0v-1.4z"/><path fill="#fc0" d="m12.5 2.143.319 2.178 1.232-1.824-.661 2.101 1.902-1.11-1.506 1.607 2.196-.175-2.053.794 2.053.795-2.196-.176 1.506 1.607-1.902-1.11.66 2.102-1.232-1.825-.318 2.179-.319-2.179-1.232 1.825.661-2.102-1.902 1.11 1.506-1.607-2.196.176 2.053-.795-2.053-.794 2.196.175-1.506-1.607 1.902 1.11-.66-2.101 1.232 1.824zm-1.786.09a3.81 3.81 0 1 0 0 6.963 4.286 4.286 0 1 1 0-6.964"/></g><defs><clipPath id="a"><path fill="#fff" d="M0 0h40v20H0z"/></clipPath></defs></svg>
